X:107
T:Old Grey Cat, The
R:Reel
M:C|
%%printtempo 0
Q:180
K:Edor
B|:\
"Em"e2e2 "Em/B"E3F| "Em7"GFGA "A7"BABc| "D"d2d2 "D/A"D3E| "D"FAdB "D/B"AFED|
"Em"e2e2 "Em/B"E3F| "Em7"GFGA "A7"BABc| "D"dcBA "B7/D#"BAGF|1 "Em"E4 ue2uB2:|2 "Em""_Gliss"(E4 .e2)z2|:
"Em"B2e2 e3d| Bdef "A7"gfed| "D"A2d2 d3B| ABde "Bm"fedf |"Em"e2B2 "Em/G"g2B2|
"A"a2B2 "B"b3a| "Em"gfed "B7"BAB^d|1 "Em" e4e4:|2 e4 ue2uB2|]
